pro/src/icons/stroke-pass.svg

<svg width="48" height="48" viewBox="0 0 48 48" fill="none" xmlns="http://www.w3.org/2000/svg">
<path id="icon" fill-rule="evenodd" clip-rule="evenodd" d="M25.0057 3C25.0057 2.44772 24.5577 2 24.0051 2C23.4525 2 23.0045 2.44772 23.0045 3V6.03517C23.0045 6.58746 23.4525 7.03517 24.0051 7.03517C24.5577 7.03517 25.0057 6.58746 25.0057 6.03517V3ZM25.0057 9.50964C25.0057 8.95736 24.5577 8.50964 24.0051 8.50964C23.4525 8.50964 23.0045 8.95736 23.0045 9.50964V16.0193C23.0045 16.5716 23.4525 17.0193 24.0051 17.0193C24.5577 17.0193 25.0057 16.5716 25.0057 16.0193V9.50964ZM16.3598 3.3298C16.8782 3.13861 17.4536 3.40366 17.6449 3.92179L21.9836 15.6731C22.1749 16.1912 21.9097 16.7663 21.3913 16.9574C20.8729 17.1486 20.2975 16.8836 20.1062 16.3655L15.7675 4.61415C15.5762 4.09602 15.8414 3.52099 16.3598 3.3298ZM11.092 7.3042C10.734 6.88351 10.1025 6.83256 9.68158 7.19039C9.26065 7.54822 9.20966 8.17933 9.5677 8.60002L13.0346 12.6735C13.3927 13.0942 14.0242 13.1452 14.4451 12.7873C14.866 12.4295 14.917 11.7984 14.559 11.3777L11.092 7.3042ZM15.7338 14.2986C16.1548 13.9409 16.7863 13.9921 17.1442 14.413L18.5025 16.0104C18.8604 16.4313 18.8091 17.0624 18.3881 17.42C17.967 17.7777 17.3355 17.7264 16.9777 17.3056L15.6193 15.7081C15.2614 15.2873 15.3127 14.6562 15.7338 14.2986ZM6.02955 12.634C5.54917 12.361 4.93832 12.5289 4.66516 13.009C4.39201 13.4891 4.56 14.0996 5.04038 14.3726L15.4412 20.2832C15.9215 20.5562 16.5324 20.3883 16.8055 19.9082C17.0787 19.4281 16.9107 18.8176 16.4303 18.5446L6.02955 12.634ZM2.0152 20.1797C2.11063 19.6357 2.62925 19.272 3.17355 19.3674L8.13065 20.236C8.67495 20.3314 9.03884 20.8497 8.9434 21.3937C8.84797 21.9377 8.32936 22.3014 7.78505 22.206L2.82796 21.3374C2.28365 21.242 1.91977 20.7237 2.0152 20.1797ZM10.5329 20.6453C9.98853 20.5501 9.47001 20.9139 9.37471 21.4579C9.27941 22.0019 9.64342 22.5201 10.1878 22.6154L15.7227 23.5838C16.267 23.6791 16.7855 23.3153 16.8808 22.7713C16.9761 22.2273 16.6121 21.709 16.0678 21.6138L10.5329 20.6453ZM6.52088 27.0403C6.61546 27.5844 6.25077 28.1022 5.70631 28.1967L3.17201 28.6367C2.62756 28.7312 2.10951 28.3668 2.01493 27.8226C1.92035 27.2785 2.28504 26.7608 2.8295 26.6662L5.3638 26.2262C5.90825 26.1317 6.4263 26.4962 6.52088 27.0403ZM13.6253 24.7886C13.6373 24.7865 13.6492 24.7846 13.6612 24.783L15.726 24.4288C16.2707 24.3353 16.788 24.7008 16.8815 25.2452C16.975 25.7895 16.6092 26.3065 16.0646 26.3999L13.9662 26.7599C13.9558 26.7617 13.9453 26.7633 13.935 26.7648L8.51455 27.7075C7.97012 27.8022 7.45197 27.4378 7.35723 26.8937C7.26249 26.3496 7.62704 25.8318 8.17147 25.7371L13.6253 24.7886ZM16.4303 29.4583C16.9107 29.1853 17.0787 28.5748 16.8055 28.0947C16.5324 27.6146 15.9215 27.4468 15.4411 27.7197L5.04035 33.6303C4.55997 33.9033 4.39198 34.5138 4.66514 34.9939C4.93829 35.474 5.54915 35.6419 6.02953 35.3689L16.4303 29.4583ZM18.3884 30.5831C18.8094 30.9408 18.8605 31.5719 18.5026 31.9927L11.0619 40.7388C10.7039 41.1595 10.0724 41.2106 9.65144 40.8529C9.23044 40.4951 9.17933 39.864 9.53728 39.4433L16.978 30.6972C17.336 30.2764 17.9674 30.2253 18.3884 30.5831ZM20.3615 36.7335C20.5531 36.2154 20.2881 35.6403 19.7698 35.4489C19.2514 35.2574 18.6759 35.5222 18.4844 36.0403L15.7676 43.3886C15.5761 43.9066 15.841 44.4818 16.3594 44.6732C16.8777 44.8646 17.4532 44.5998 17.6448 44.0818L20.3615 36.7335ZM21.4027 31.0561C21.9209 31.248 22.1854 31.8234 21.9934 32.3412L21.5271 33.5992C21.3351 34.1171 20.7594 34.3814 20.2413 34.1896C19.7231 33.9977 19.4586 33.4224 19.6506 32.9045L20.1169 31.6465C20.3088 31.1286 20.8846 30.8643 21.4027 31.0561ZM25.0058 31.9941C25.0058 31.4419 24.5578 30.9941 24.0052 30.9941C23.4526 30.9941 23.0046 31.4419 23.0046 31.9941V45.0034C23.0046 45.5557 23.4526 46.0034 24.0052 46.0034C24.5578 46.0034 25.0058 45.5557 25.0058 45.0034V31.9941ZM30.0663 40.4005C30.585 40.2098 31.1601 40.4755 31.3508 40.9938L32.2328 43.39C32.4235 43.9083 32.1578 44.4831 31.6391 44.6737C31.1205 44.8644 30.5454 44.5988 30.3546 44.0804L29.4727 41.6842C29.2819 41.1659 29.5477 40.5912 30.0663 40.4005ZM27.8935 31.6474C27.7021 31.1293 27.1266 30.8645 26.6083 31.0558C26.0899 31.2471 25.8248 31.8222 26.0163 32.3403L28.1856 38.211C28.3771 38.729 28.9525 38.9939 29.4709 38.8026C29.9893 38.6113 30.2543 38.0362 30.0629 37.5181L27.8935 31.6474ZM29.6112 30.5835C30.0319 30.2255 30.6634 30.2761 31.0217 30.6967L38.4725 39.4427C38.8308 39.8633 38.7801 40.4944 38.3593 40.8524C37.9385 41.2105 37.307 41.1598 36.9488 40.7393L29.4979 31.9932C29.1397 31.5727 29.1904 30.9415 29.6112 30.5835ZM37.06 30.276C36.5797 30.0029 35.9688 30.1707 35.6955 30.6507C35.4222 31.1307 35.5901 31.7413 36.0704 32.0144L41.9702 35.369C42.4506 35.6421 43.0615 35.4744 43.3347 34.9944C43.608 34.5143 43.4402 33.9038 42.9598 33.6307L37.06 30.276ZM31.1938 28.0959C31.4663 27.6155 32.0769 27.4467 32.5576 27.7191L34.1086 28.5977C34.5894 28.87 34.7582 29.4803 34.4857 29.9608C34.2132 30.4412 33.6026 30.61 33.1218 30.3376L31.5708 29.459C31.0901 29.1867 30.9213 28.5764 31.1938 28.0959ZM32.286 24.4291C31.7416 24.3346 31.2235 24.6991 31.129 25.2432C31.0344 25.7874 31.3991 26.3051 31.9436 26.3996L44.828 28.636C45.3724 28.7305 45.8905 28.366 45.985 27.8219C46.0796 27.2778 45.7149 26.76 45.1704 26.6655L32.286 24.4291ZM45.9844 20.1773C46.0812 20.721 45.7186 21.2402 45.1745 21.3369L43.4309 21.6469C42.8868 21.7437 42.3673 21.3813 42.2705 20.8376C42.1737 20.2938 42.5363 19.7746 43.0804 19.6779L44.824 19.3679C45.3681 19.2711 45.8876 19.6335 45.9844 20.1773ZM40.0313 22.2361C40.5757 22.1414 40.9402 21.6235 40.8454 21.0794C40.7506 20.5353 40.2324 20.171 39.688 20.2658L31.9431 21.6136C31.3987 21.7084 31.0342 22.2263 31.129 22.7704C31.2239 23.3145 31.742 23.6787 32.2865 23.584L40.0313 22.2361ZM43.3348 13.009C43.608 13.4891 43.44 14.0996 42.9596 14.3726L38.8135 16.7288C38.3331 17.0018 37.7223 16.8339 37.4491 16.3538C37.1759 15.8738 37.3439 15.2633 37.8243 14.9903L41.9704 12.634C42.4508 12.361 43.0617 12.5289 43.3348 13.009ZM36.1469 18.2467C36.6275 17.974 36.7958 17.3635 36.5229 16.8833C36.25 16.4031 35.6392 16.2348 35.1587 16.5076L31.5701 18.5443C31.0896 18.8171 30.9213 19.4275 31.1942 19.9077C31.4671 20.388 32.0778 20.5562 32.5584 20.2834L36.1469 18.2467ZM38.3593 7.15078C38.7801 7.50881 38.8308 8.13994 38.4725 8.56046L31.0217 17.3065C30.6634 17.7271 30.0319 17.7777 29.6112 17.4197C29.1904 17.0617 29.1397 16.4305 29.4979 16.01L36.9488 7.26392C37.307 6.8434 37.9385 6.79275 38.3593 7.15078ZM32.2323 4.61415C32.4236 4.09602 32.1584 3.52099 31.64 3.3298C31.1216 3.13861 30.5462 3.40366 30.3549 3.92179L26.0162 15.6731C25.8249 16.1912 26.0901 16.7663 26.6085 16.9574C27.127 17.1486 27.7023 16.8836 27.8936 16.3655L32.2323 4.61415Z" fill="currentColor"/>
</svg>

<svg xmlns="http://www.w3.org/2000/svg" width="48" height="48" fill="none"><path id="icon" fill="currentColor" fill-rule="evenodd" d="M25.006 3a1 1 0 0 0-2.001 0v3.035a1 1 0 0 0 2 0zm0 6.51a1 1 0 0 0-2.001 0v6.51a1 1 0 0 0 2 0zM16.36 3.33a1 1 0 0 1 1.285.592l4.339 11.751a1 1 0 1 1-1.878.693L15.767 4.614a1 1 0 0 1 .593-1.284m-5.268 3.974A1 1 0 0 0 9.568 8.6l3.467 4.074a1.001 1.001 0 0 0 1.524-1.296zm4.642 6.995a1 1 0 0 1 1.41.114l1.359 1.597a1 1 0 1 1-1.525 1.296l-1.359-1.598a1 1 0 0 1 .115-1.41M6.03 12.634a1 1 0 0 0-.99 1.739l10.401 5.91a1 1 0 0 0 .99-1.738zM2.015 20.18a1 1 0 0 1 1.159-.813l4.957.869a1 1 0 1 1-.346 1.97l-4.957-.869a1 1 0 0 1-.813-1.157m8.518.465a1 1 0 0 0-.345 1.97l5.535.969a1 1 0 1 0 .345-1.97zM6.52 27.04a1 1 0 0 1-.815 1.157l-2.534.44a1 1 0 1 1-.343-1.97l2.535-.44a1 1 0 0 1 1.157.813m7.104-2.251.036-.006 2.065-.354a1 1 0 1 1 .339 1.97l-2.099.36q-.015.004-.031.006l-5.42.942a1 1 0 1 1-.344-1.97zm2.805 4.67a1 1 0 1 0-.989-1.74l-10.4 5.911a1 1 0 1 0 .989 1.739zm1.958 1.124a1 1 0 0 1 .115 1.41l-7.441 8.746a1.001 1.001 0 0 1-1.525-1.296l7.441-8.746a1 1 0 0 1 1.41-.114m1.973 6.15a1 1 0 1 0-1.877-.693l-2.716 7.349a1 1 0 1 0 1.877.693zm1.042-5.677a1 1 0 0 1 .59 1.285l-.466 1.258a1 1 0 0 1-1.876-.694l.466-1.259a1 1 0 0 1 1.286-.59m3.603.938a1 1 0 0 0-2.001 0v13.01a1 1 0 0 0 2 0zm5.06 8.407a1 1 0 0 1 1.285.593l.882 2.396a1 1 0 1 1-1.878.69l-.882-2.396a1 1 0 0 1 .593-1.283m-2.172-8.754a1 1 0 0 0-1.878.693l2.17 5.871a1 1 0 0 0 1.877-.693zm1.717-1.063a1 1 0 0 1 1.41.113l7.451 8.746a1 1 0 1 1-1.523 1.296l-7.451-8.746a1 1 0 0 1 .113-1.41m7.449-.308a1.001 1.001 0 0 0-.99 1.738l5.9 3.355a1 1 0 0 0 .99-1.738zm-5.866-2.18a1 1 0 0 1 1.364-.377l1.55.879a1 1 0 1 1-.986 1.74l-1.551-.879a1 1 0 0 1-.377-1.363m1.092-3.667a1 1 0 1 0-.342 1.97l12.884 2.237a1 1 0 1 0 .342-1.97zm13.698-4.252a1 1 0 0 1-.81 1.16l-1.743.31a1 1 0 1 1-.35-1.97l1.743-.31a1 1 0 0 1 1.16.81m-5.953 2.06a1 1 0 1 0-.343-1.971l-7.745 1.348a1 1 0 1 0 .343 1.97zm3.304-9.228a1 1 0 0 1-.375 1.364l-4.147 2.356a1 1 0 0 1-.989-1.739l4.146-2.356a1 1 0 0 1 1.365.375m-7.188 5.238a1 1 0 1 0-.988-1.74l-3.589 2.037a1 1 0 1 0 .988 1.74zM38.359 7.15a1 1 0 0 1 .113 1.41l-7.45 8.746a1 1 0 0 1-1.524-1.297l7.45-8.746c.359-.42.99-.471 1.411-.113m-6.127-2.537a1 1 0 1 0-1.877-.692l-4.339 11.751a1 1 0 1 0 1.878.693z" clip-rule="evenodd"/></svg>
